X: 3
T: La Partida
R: waltz
M: 3/4
L: 1/8
K: Bmin
d3 F dF | d3 F dF | de/d/ c^B c2 | zE FE ^DE |c3 E cE | c3 E cE | cd/c/ B^A B2 | zF GF ^EF |B2 ^AB- B=c | B2 AG- GF | FG/F/ E^D E2 | zg fe dc |b^a bc de | fg fe dc | bc/b/ ^ab df |[1 BF GF ^EF :|[2 Bz F2 F2 |||: fe Ff eF | fe Ff eF | ed Fe dF | ed Fe dF |dc Fd cF | dc Fd cF | cB Fc BF | cB Fc BF |BA FB AF | BA FB AF | FG/F/ E^D E2 | zg fe dc |b^a bc de | fg fe dc | bc/b/ ^ab df |[1 Bz F2 F2 :|[2 B |]


Tune 3575	Setting 16600

